src/components/ReferenciasVisuais/aros/baulada dupla.svg

<?xml version="1.0" encoding="UTF-8" standalone="no"?>
<!-- Created with Inkscape (http://www.inkscape.org/) -->

<svg
   width="260.9408mm"
   height="144.75632mm"
   viewBox="0 0 260.9408 144.75632"
   version="1.1"
   id="svg1"
   xml:space="preserve"
   xmlns:inkscape="http://www.inkscape.org/namespaces/inkscape"
   xmlns:sodipodi="http://sodipodi.sourceforge.net/DTD/sodipodi-0.dtd"
   xmlns="http://www.w3.org/2000/svg"
   xmlns:svg="http://www.w3.org/2000/svg"><sodipodi:namedview
     id="namedview1"
     pagecolor="#ffffff"
     bordercolor="#000000"
     borderopacity="0.25"
     inkscape:showpageshadow="2"
     inkscape:pageopacity="0.0"
     inkscape:pagecheckerboard="0"
     inkscape:deskcolor="#d1d1d1"
     inkscape:document-units="mm"><inkscape:page
       x="0"
       y="0"
       width="260.9408"
       height="144.75632"
       id="page2"
       margin="0"
       bleed="0" /></sodipodi:namedview><defs
     id="defs1" /><g
     inkscape:label="Camada 1"
     inkscape:groupmode="layer"
     id="layer1"
     transform="translate(25.695407,-76.053089)"><g
       style="overflow:visible;stroke-width:14.1732;stroke-dasharray:none"
       id="g1"
       transform="matrix(0.35277778,0,0,0.35277778,-71.957707,42.390059)"
       inkscape:export-filename="g1.svg"
       inkscape:export-xdpi="96"
       inkscape:export-ydpi="96"><path
         d="m 138.225,355.6998 c 0,-30.494 0,-63.0137 7.499,-90.7671 7.499,-27.7533 22.4971,-50.7402 42.2287,-69.338 19.7316,-18.5978 44.1968,-32.8066 69.7017,-44.4717 25.505,-11.6651 52.0496,-20.7866 78.9604,-27.9139 26.9108,-7.1273 54.1878,-12.2604 81.6441,-15.651 27.4563,-3.3905 55.092,-5.0385 82.7157,-5.0487 27.6238,0.0102 55.2594,1.6582 82.7157,5.0487 27.4563,3.3906 54.7333,8.5237 81.6441,15.651 26.9108,7.1273 53.4555,16.2488 78.9604,27.9139 25.5049,11.6651 49.9702,25.8739 69.7018,44.4717 19.7315,18.5978 34.7296,41.5847 42.2286,69.338 7.499,27.7534 7.499,60.2731 7.499,90.7671 0,17.7916 0,36.7651 -7.499,52.1654 -7.499,15.4003 -22.4971,27.2273 -42.2286,37.2859 -19.7316,10.0585 -44.1969,18.3485 -69.7018,25.1545 -25.5049,6.8059 -52.0496,12.1278 -78.9604,16.2862 -26.9108,4.1584 -54.1878,7.1533 -81.6441,9.1315 -27.4563,1.9782 -55.0919,2.9397 -82.7157,2.9457 -27.6237,-0.006 -55.2594,-0.9675 -82.7157,-2.9457 -27.4563,-1.9782 -54.7333,-4.9731 -81.6441,-9.1315 -26.9108,-4.1584 -53.4554,-9.4803 -78.9604,-16.2862 -25.5049,-6.806 -49.9701,-15.096 -69.7017,-25.1545 -19.7316,-10.0586 -34.7297,-21.8856 -42.2287,-37.2859 -7.499,-15.4003 -7.499,-34.3738 -7.499,-52.1654 z"
         stroke="#000000"
         stroke-width="0.24"
         fill-opacity="0"
         id="path1"
         style="stroke-width:14.1732;stroke-dasharray:none" /></g></g></svg>

﻿<?xml version="1.0" encoding="UTF-8" standalone="no"?>
<!DOCTYPE svg PUBLIC "-//W3C//DTD SVG 1.1//EN" "http://www.w3.org/Graphics/SVG/1.1/DTD/svg11.dtd">
<svg width="1008pt" height="612pt" viewBox="0 0 1008 612" overflow="visible" version="1.1" xmlns="http://www.w3.org/2000/svg">
  <path d="M138.225,355.6998 C138.225,325.2058 138.225,292.6861 145.724,264.9327 C153.223,237.1794 168.2211,214.1925 187.9527,195.5947 C207.6843,176.9969 232.1495,162.7881 257.6544,151.123 C283.1594,139.4579 309.704,130.3364 336.6148,123.2091 C363.5256,116.0818 390.8026,110.9487 418.2589,107.5581 C445.7152,104.1676 473.3509,102.5196 500.9746,102.5094 C528.5984,102.5196 556.234,104.1676 583.6903,107.5581 C611.1466,110.9487 638.4236,116.0818 665.3344,123.2091 C692.2452,130.3364 718.7899,139.4579 744.2948,151.123 C769.7997,162.7881 794.265,176.9969 813.9966,195.5947 C833.7281,214.1925 848.7262,237.1794 856.2252,264.9327 C863.7242,292.6861 863.7242,325.2058 863.7242,355.6998 C863.7242,373.4914 863.7242,392.4649 856.2252,407.8652 C848.7262,423.2655 833.7281,435.0925 813.9966,445.1511 C794.265,455.2096 769.7997,463.4996 744.2948,470.3056 C718.7899,477.1115 692.2452,482.4334 665.3344,486.5918 C638.4236,490.7502 611.1466,493.7451 583.6903,495.7233 C556.234,497.7015 528.5984,498.663 500.9746,498.669 C473.3509,498.663 445.7152,497.7015 418.2589,495.7233 C390.8026,493.7451 363.5256,490.7502 336.6148,486.5918 C309.704,482.4334 283.1594,477.1115 257.6544,470.3056 C232.1495,463.4996 207.6843,455.2096 187.9527,445.1511 C168.2211,435.0925 153.223,423.2655 145.724,407.8652 C138.225,392.4649 138.225,373.4914 138.225,355.6998 z" stroke="#000000" stroke-width="0.24" fill-opacity="0" />
</svg>
